X: 34626
T: Road To Ballindine, The
R: reel
M: 4/4
K: Gmajor
(3DEF|:G2BG dGBd|eBdB AGEF|(3GFG BG dGBd|efgf edBA|
(3GFG BG dGBd|efgf gedB|(3GFG BG DGBG|AGEF G2dB:|
|:g2fg eddB|G2AG EFGd|g2fg edBd|eBdB A2de|
g2ag efge|dBAB GEDE|(3GFG BG DGBG|AGEF G2dB:|

